X:1
T:Mélodies pour Piano et Chant (Chansons populaires)
T:Réponse d'Éros
T:6. Réponse d'Éros (pour Ténor ou Soprano) 
T:Augusta Holmès
T:Mélodies pour Piano et Chant 
T:(Holmès) 
T:Creative Commons copyright waiver (CC0 1.0 Universal)
T:Creative Commons copyright waiver (CC0 1.0 Universal)
T:Creative Commons copyright waiver (CC0 1.0 Universal)
T:Creative Commons copyright waiver (CC0 1.0 Universal)
T:Creative Commons copyright waiver (CC0 1.0 Universal)
T:Creative Commons copyright waiver (CC0 1.0 Universal)
C:Augusta Holmès
Z:Augusta Holmès
Z:Creative Commons copyright waiver (CC0 1.0 Universal)
L:1/8
Q:1/4=76
M:12/8
K:D
V:1 treble nm="Chant\nVoice"
V:1
"^Allegro moderato" z6 z2 z z A A | d3- d A F D3/2 E/ F G3/2 A/ B | A3 F3- F z F G2 F/ E/ | %3
w: Des bos-|\- quets _ de Ky- thère et des tem- ples de|Cni- de _ Je suis ac- cou-|
 A6- A3 B2 e | d6- d2 z A2 A | d3- d A F D2 E/ F/ G2 A/ B/ | A3 F3- F2 z z G E | %7
w: \- ru _ par les|airs; _ Em- prun-|\- tant _ de Ky- pris l'at- te- la- ge ra-|pi- de _ Les co-|
 A6- A3/2 F/ A (2:3:2B e | d6- d2 z d2 d | g3- g2 d B3 (BA) G | d3 A3- A2 z (F2 D) | %11
w: \- lom- * bes aux du- vets|clairs! _ Car j'en-|\- tends _ ta voix qui * m'im-|plo- re _ En des|
 E3 F3- F3 ^G F E | A6- A3- A z A | B2 B c2 e d3 A2 F | E3/2 F/ E A6 A2"^cresc." A | %15
w: chants très _ vo- lup- tu-|eux _ _ Et|j'ai quit- té ma place à la|ta- ble des dieux Pour te|
 B3 c2 c d3 e2 e | f2 e/ d/!ff! (a6 A)!f! z A | d3 (BG) E A2- A/ B/ A z A | %18
w: ren- dre la vie, et la|joie, et l'au- ro- re! C'est|moi que * tu dois _ ai- mer! C'est|
 d3 (BG) E A2- A/ B/ A2 z/ A/ |!f! d2 z/ d/ g2- g/ g/ f3 d2 f | (A3 e3) d3- d2 z | z12 | z12 | %23
w: moi qui _ te peux _ char- mer! E-|\-ros! E- ros _ lui mê- me Qui|t'ai- * me! _|||
 z12 | z12 | z12 | z12 | z12 | z12 | z12 | z12 | z12 | z12 | z12 | z12 | z12 | z12 | z12 | z12 | %39
w: ||||||||||||||||
 z12 | z12 | z12 | z12 | z12 | z12 | z12 | z12 | z12 | z12 |] %49
w: ||||||||||

